build/logo/GitLabOutline.svg

<svg xmlns="http://www.w3.org/2000/svg" fill="none" viewBox="0 0 24 24" focusable="false"><path d="M0 0H24V24H0z"/><path fill="#74767B" fill-rule="evenodd" d="M14.3374 19.9131C14.0054 20.1927 13.6372 20.4055 13.231 20.5516C13.0415 20.6198 12.8491 20.6716 12.6538 20.7071C12.4419 20.7455 12.227 20.7648 12.0083 20.7649C11.5874 20.7651 11.1802 20.6944 10.7856 20.5528C10.3794 20.4071 10.0103 20.1946 9.67822 19.9153L5.07764 16.041C4.82178 15.8262 4.59521 15.5894 4.39795 15.3307C4.20003 15.072 4.03044 14.7915 3.88916 14.489C3.74854 14.1865 3.64307 13.8763 3.57275 13.5582C3.50244 13.2401 3.46729 12.9143 3.46729 12.5807C3.46729 12.3228 3.48877 12.0685 3.53174 11.8179C3.57471 11.5672 3.63883 11.3202 3.72412 11.0769L5.81592 5.14435C5.854 5.03494 5.90771 4.93814 5.97705 4.85397C6.03629 4.78185 6.10693 4.71897 6.18896 4.66534C6.3501 4.55942 6.52881 4.50772 6.72412 4.51025C6.82699 4.5116 6.92464 4.52788 7.01709 4.55911C7.10042 4.58713 7.17952 4.62717 7.25439 4.67923C7.33512 4.73495 7.40413 4.79964 7.46142 4.87329C7.52848 4.95927 7.57992 5.05744 7.61572 5.16782L8.83447 8.9375C8.85791 9.00974 8.90088 9.06818 8.96143 9.11282C9.02295 9.15747 9.09229 9.17981 9.16748 9.17981L14.8149 9.17981C14.8892 9.17981 14.9575 9.15793 15.0181 9.11423C15.0796 9.0705 15.1216 9.01309 15.146 8.94205L16.4312 5.14536C16.4683 5.03592 16.521 4.93878 16.5884 4.85394C16.647 4.78122 16.7163 4.71753 16.7974 4.66287C16.9565 4.5549 17.1333 4.50061 17.3286 4.5C17.5229 4.49939 17.6997 4.55258 17.8608 4.65955C17.9419 4.71365 18.0112 4.77692 18.0698 4.84927C18.1382 4.93369 18.1909 5.03049 18.229 5.13971L20.2847 11.0873C20.3677 11.3278 20.4302 11.5718 20.4712 11.8194C20.5132 12.0669 20.5337 12.3178 20.5337 12.5723C20.5337 13.2422 20.3931 13.8808 20.1108 14.4883C19.8286 15.0957 19.4311 15.6154 18.9194 16.0474L14.3374 19.9131ZM13.0933 16.1892L15.0308 17.6271L18.0806 15.0537C18.4468 14.7453 18.73 14.3742 18.9312 13.9404C19.0327 13.7236 19.1079 13.5011 19.1587 13.2731C19.2085 13.0451 19.2339 12.8115 19.2339 12.5723C19.2339 12.3906 19.2189 12.2113 19.189 12.0346C19.1714 11.9278 19.1479 11.822 19.1196 11.717L13.0933 16.1892ZM12.0024 16.9986L14.0093 18.4884L13.4985 18.9195C13.2866 19.0986 13.0503 19.235 12.7905 19.3284C12.5376 19.4193 12.2769 19.4648 12.0073 19.4649C11.8641 19.465 11.7235 19.4522 11.5854 19.4267C11.4634 19.4042 11.3433 19.3716 11.2241 19.3291C10.9644 19.236 10.728 19.0999 10.5161 18.9209L9.99854 18.4854L12.0024 16.9986ZM12.0024 15.3798L5.33154 10.4294L6.69775 6.55344L7.59814 9.33759C7.65283 9.50781 7.72998 9.6618 7.83057 9.79953C7.93018 9.93729 8.05225 10.0588 8.19678 10.164C8.34131 10.2693 8.49463 10.3482 8.65674 10.4008C8.81885 10.4535 8.98909 10.4798 9.16748 10.4798L14.8149 10.4798C15.1685 10.4798 15.4888 10.3767 15.7759 10.1706C15.9194 10.0675 16.0415 9.94836 16.1421 9.81308C16.2423 9.6778 16.3208 9.52642 16.3774 9.35892L17.3345 6.5314L18.6802 10.4242L12.0024 15.3798ZM10.9116 16.1892L8.97705 17.6249L5.91455 15.0466C5.73291 14.8935 5.5708 14.7248 5.43018 14.5404C5.28955 14.3561 5.16846 14.1561 5.06787 13.9406C4.86768 13.5095 4.76709 13.0562 4.76709 12.5807C4.76709 12.3969 4.78239 12.2157 4.81299 12.037C4.83122 11.9295 4.85531 11.8228 4.88525 11.7172L10.9116 16.1892Z"/></svg>

<svg xmlns="http://www.w3.org/2000/svg" fill="none" viewBox="0 0 24 24" focusable="false"><path fill="#74767B" fill-rule="evenodd" d="M14.33 19.91c-.33.28-.7.49-1.1.64-.19.06-.39.12-.58.15a3.64 3.64 0 0 1-1.87-.15c-.41-.15-.77-.36-1.11-.64l-4.6-3.87c-.25-.22-.48-.46-.68-.71-.19-.26-.36-.54-.51-.85-.14-.3-.24-.61-.31-.93-.07-.31-.11-.64-.11-.97 0-.26.02-.52.07-.77.04-.25.1-.49.19-.74l2.09-5.93a.952.952 0 0 1 .37-.48.87.87 0 0 1 .54-.15c.1 0 .2.01.29.04s.16.07.24.12c.08.06.15.12.21.2s.12.18.15.29l1.22 3.77c.02.07.07.13.13.18.06.04.13.06.2.06h5.65c.07 0 .14-.02.2-.06s.11-.1.13-.17l1.29-3.8c.03-.11.09-.21.15-.29a.95.95 0 0 1 .74-.35c.2-.01.37.05.54.15.08.06.15.12.2.19.07.09.13.19.16.29l2.06 5.95c.08.24.15.49.19.73.04.25.06.5.06.76 0 .67-.14 1.31-.42 1.91-.29.61-.68 1.13-1.2 1.56zm-1.24-3.73 1.94 1.44 3.05-2.57c.36-.31.65-.68.85-1.11.1-.22.17-.44.22-.67s.08-.46.08-.7c0-.18-.02-.36-.05-.54-.01-.11-.04-.21-.07-.32zm-1.09.81 2 1.49-.51.43c-.21.18-.44.32-.7.41s-.52.14-.79.14c-.14 0-.28-.01-.42-.04-.12-.02-.24-.05-.36-.1-.26-.09-.5-.23-.71-.4l-.52-.44zm0-1.62-6.67-4.95 1.36-3.87.9 2.78c.06.17.13.33.24.46.1.14.22.26.36.37.15.1.3.18.46.24.16.05.33.07.51.07h5.65q.525 0 .96-.3c.14-.11.27-.23.37-.36.1-.14.18-.29.23-.46l.96-2.82 1.35 3.89zm-1.09.81-1.94 1.44-3.06-2.58c-.18-.15-.34-.32-.48-.5a3.13 3.13 0 0 1-.67-1.96 3.663 3.663 0 0 1 .12-.87z"/></svg>
